img/ui/icons/Chek-1.svg

<svg width="24" height="25" viewBox="0 0 24 25" fill="none" xmlns="http://www.w3.org/2000/svg">
<g clip-path="url(#clip0_4063_9669)">
<path d="M23.1376 1.41729L23.1318 15.1982C23.0621 16.2657 21.8187 17.7111 20.7613 17.7111H13.9577V20.6077C13.9577 22.0411 12.4238 23.1146 11.1572 23.1926C7.9733 23.3845 4.61508 23.0426 1.41373 23.1926C1.00702 23.2046 0.681656 22.7848 0.97797 22.4249C1.12322 22.245 1.61708 22.257 1.87272 22.179C2.58155 21.9571 3.16256 21.1955 3.22647 20.4338C3.31943 19.3003 3.14513 14.1727 3.22647 13.0272C3.34848 12.5414 4.03407 12.6374 4.08636 13.1471C4.02826 14.2986 4.17932 19.3363 4.09798 20.4818C4.04569 21.1895 3.74357 21.7652 3.31362 22.299H11.2502C12.0636 22.299 13.0978 21.3874 13.0978 20.5238V17.7171H10.2915C9.33867 17.7171 7.92101 16.3017 7.92101 15.3181V13.9928H5.98626C5.69575 13.9928 5.4924 13.6149 5.6086 13.3331C5.63184 13.2671 5.80614 13.0992 5.85843 13.0992H7.8571L7.92101 13.0332V11.7738L7.8571 11.7078H5.85843C5.80614 11.7078 5.63184 11.5339 5.6086 11.4739C5.49821 11.186 5.70156 10.8142 5.98626 10.8142H7.92101V8.72714C7.92101 8.18739 7.4562 7.47371 7.02045 7.18584C5.78871 6.38221 4.27228 7.18584 4.09217 8.63718L4.08055 13.1591C3.89463 13.6509 3.24971 13.5549 3.22066 13.0332C3.30781 11.5878 3.11027 10.0166 3.22066 8.58321C3.31362 7.38975 4.46402 5.9564 5.67832 5.9564H12.5691V1.48244C12.5691 1.26054 12.8015 1.01465 13.0281 1.01465C13.3592 1.01465 14.2598 1.70433 14.6375 1.81229C15.0732 1.71033 15.8634 1.02664 16.2527 1.02065C16.5606 1.02065 17.5076 1.69234 17.8562 1.81229C18.2804 1.71633 19.0996 1.02664 19.4714 1.02065C19.7852 1.02065 20.7148 1.69834 21.0808 1.80629L22.6263 1.03864C22.8878 0.996657 22.9982 1.13459 23.1376 1.32651V1.41729ZM22.2603 2.2261C21.9407 2.33405 21.4178 2.75986 21.1099 2.76585C20.802 2.77185 19.8956 2.14214 19.4947 1.9982C19.2158 1.98021 18.292 2.75386 17.8911 2.76585C17.4902 2.77785 16.671 2.11215 16.2352 2.0042C16.0144 2.0042 15.1604 2.63391 14.8524 2.72987C14.3237 2.8918 13.9228 2.34604 13.429 2.2261C13.429 5.7525 13.429 9.2729 13.429 12.7993C13.429 13.7649 13.5858 15.0962 13.2198 15.9898C12.8538 16.8834 12.9061 16.5296 12.7318 16.8115H20.6683C21.3132 16.8115 22.2545 15.7859 22.2545 15.1262V2.2261H22.2603ZM12.5633 6.85H8.04302C8.44392 7.37776 8.72861 7.9415 8.7809 8.62519C8.93777 10.7002 8.6066 13.0272 8.7809 15.0903C8.9552 17.1533 10.7447 17.3572 11.8951 16.3677C12.1333 16.1638 12.5691 15.534 12.5691 15.2222V6.85H12.5633Z" fill="currentColor" stroke="currentColor" stroke-width="0.5"/>
<mask id="path-2-inside-1_4063_9669" fill="white">
<path d="M5.89258 19.3792L11.2785 19.3672C11.8247 19.4332 11.8363 20.2008 11.2785 20.2668H5.96811C5.45683 20.2008 5.39873 19.5231 5.89258 19.3792Z"/>
</mask>
<path d="M5.89258 19.3792L11.2785 19.3672C11.8247 19.4332 11.8363 20.2008 11.2785 20.2668H5.96811C5.45683 20.2008 5.39873 19.5231 5.89258 19.3792Z" fill="currentColor"/>
<path d="M5.89258 19.3792L5.89036 18.3792L5.74874 18.3795L5.61277 18.4191L5.89258 19.3792ZM11.2785 19.3672L11.3984 18.3744L11.3376 18.3671L11.2763 18.3672L11.2785 19.3672ZM11.2785 20.2668V21.2668H11.3375L11.396 21.2599L11.2785 20.2668ZM5.96811 20.2668L5.84015 21.2586L5.90387 21.2668H5.96811V20.2668ZM5.89481 20.3792L11.2808 20.3672L11.2763 18.3672L5.89036 18.3792L5.89481 20.3792ZM11.1586 20.36C11.0528 20.3472 10.9218 20.2886 10.822 20.1698C10.7308 20.0614 10.6933 19.9362 10.6925 19.824C10.6917 19.7114 10.7279 19.5805 10.8236 19.4661C10.928 19.3412 11.0622 19.2854 11.1611 19.2737L11.396 21.2599C12.2273 21.1615 12.6971 20.4798 12.6925 19.81C12.6879 19.1519 12.2225 18.4739 11.3984 18.3744L11.1586 20.36ZM11.2785 19.2668H5.96811V21.2668H11.2785V19.2668ZM6.09608 19.275C6.19118 19.2873 6.30876 19.3374 6.40429 19.4404C6.4937 19.5368 6.54013 19.654 6.5498 19.7672C6.55946 19.8804 6.53368 20.0067 6.45856 20.1204C6.37827 20.242 6.26624 20.3119 6.17239 20.3392L5.61277 18.4191C4.03156 18.88 4.30292 21.0602 5.84015 21.2586L6.09608 19.275Z" fill="currentColor" mask="url(#path-2-inside-1_4063_9669)"/>
<mask id="path-4-inside-2_4063_9669" fill="white">
<path d="M15.2002 9.41699C15.6186 9.34502 17.3616 9.35102 17.7857 9.41699C18.2099 9.48296 18.39 10.1367 17.8845 10.2986H15.1073C14.6657 10.1007 14.7064 9.50095 15.206 9.41699H15.2002Z"/>
</mask>
<path d="M15.2002 9.41699C15.6186 9.34502 17.3616 9.35102 17.7857 9.41699C18.2099 9.48296 18.39 10.1367 17.8845 10.2986H15.1073C14.6657 10.1007 14.7064 9.50095 15.206 9.41699H15.2002Z" fill="currentColor"/>
<path d="M15.2002 9.41699L15.0307 8.43146L15.2002 10.417V9.41699ZM17.8845 10.2986V11.2986H18.0407L18.1896 11.2509L17.8845 10.2986ZM15.1073 10.2986L14.6983 11.2111L14.8934 11.2986H15.1073V10.2986ZM15.206 9.41699L15.3718 10.4032L15.206 8.41699V9.41699ZM15.3698 10.4025C15.3689 10.4027 15.3784 10.4011 15.4015 10.3986C15.4235 10.3962 15.4523 10.3935 15.4883 10.3909C15.5607 10.3855 15.6517 10.3806 15.7583 10.3767C15.9711 10.3687 16.2282 10.3649 16.4894 10.3653C17.0467 10.366 17.5093 10.386 17.632 10.4051L17.9394 8.42887C17.638 8.38198 17.017 8.36599 16.4922 8.36526C15.9744 8.36454 15.3415 8.37799 15.0307 8.43146L15.3698 10.4025ZM17.632 10.4051C17.3541 10.3619 17.2278 10.1544 17.1998 10.0005C17.1823 9.90431 17.1866 9.76129 17.2691 9.61381C17.3584 9.45415 17.4916 9.37437 17.5794 9.34626L18.1896 11.2509C18.5301 11.1418 18.8304 10.9196 19.0148 10.5898C19.1924 10.2721 19.2199 9.93121 19.1676 9.64308C19.0699 9.10536 18.6415 8.53807 17.9394 8.42887L17.632 10.4051ZM17.8845 9.29858H15.1073V11.2986H17.8845V9.29858ZM15.5163 9.38605C15.677 9.45811 15.8229 9.65746 15.7993 9.90877C15.788 10.029 15.7369 10.1513 15.6447 10.249C15.5496 10.3497 15.4424 10.3913 15.3718 10.4032L15.0403 8.43081C14.3566 8.5457 13.8692 9.07203 13.8081 9.72133C13.7496 10.343 14.0959 10.9411 14.6983 11.2111L15.5163 9.38605ZM15.206 8.41699H15.2002V10.417H15.206V8.41699Z" fill="currentColor" mask="url(#path-4-inside-2_4063_9669)"/>
<path d="M17.8437 12.5957C17.422 12.6629 16.9175 12.6344 16.4142 12.6061C15.9745 12.5813 15.5357 12.5565 15.1536 12.5957H17.8437Z" fill="currentColor" stroke="currentColor"/>
<mask id="path-7-inside-3_4063_9669" fill="white">
<path d="M15.1132 13.9933H17.8846C18.3726 14.1312 18.3029 14.8029 17.7974 14.8749C17.3617 14.9409 15.6245 14.9469 15.1945 14.8749C14.7239 14.7969 14.6658 14.1492 15.1132 13.9873V13.9933Z"/>
</mask>
<path d="M15.1132 13.9933H17.8846C18.3726 14.1312 18.3029 14.8029 17.7974 14.8749C17.3617 14.9409 15.6245 14.9469 15.1945 14.8749C14.7239 14.7969 14.6658 14.1492 15.1132 13.9873V13.9933Z" fill="currentColor"/>
<path d="M15.1132 13.9933H14.1132V14.9933H15.1132V13.9933ZM17.8846 13.9933L18.1566 13.031L18.0232 12.9933H17.8846V13.9933ZM17.7974 14.8749L17.6565 13.8848L17.6477 13.8862L17.7974 14.8749ZM15.1945 14.8749L15.3596 13.8886L15.358 13.8883L15.1945 14.8749ZM15.1132 13.9873H16.1132V12.5619L14.7728 13.047L15.1132 13.9873ZM15.1132 14.9933H17.8846V12.9933H15.1132V14.9933ZM17.6126 14.9556C17.5135 14.9276 17.3937 14.8539 17.3092 14.7236C17.2302 14.602 17.2073 14.4704 17.2186 14.3584C17.2425 14.1217 17.4277 13.9175 17.6565 13.8849L17.9384 15.8649C18.6727 15.7604 19.1454 15.1843 19.2085 14.5593C19.2731 13.9203 18.9032 13.242 18.1566 13.031L17.6126 14.9556ZM17.6477 13.8862C17.5164 13.906 17.0492 13.9259 16.4924 13.9266C16.2304 13.927 15.9726 13.9232 15.7584 13.9152C15.6511 13.9113 15.5591 13.9064 15.4854 13.901C15.4487 13.8983 15.4191 13.8956 15.396 13.8931C15.3846 13.8919 15.3758 13.8909 15.3693 13.89C15.3626 13.8891 15.3596 13.8886 15.3596 13.8886L15.0294 15.8612C15.343 15.9137 15.9736 15.9273 16.4952 15.9266C17.0234 15.9259 17.6427 15.9097 17.9471 15.8636L17.6477 13.8862ZM15.358 13.8883C15.9081 13.9795 15.9694 14.7409 15.4535 14.9276L14.7728 13.047C13.3622 13.5576 13.5397 15.6144 15.0311 15.8615L15.358 13.8883ZM14.1132 13.9873V13.9933H16.1132V13.9873H14.1132Z" fill="currentColor" mask="url(#path-7-inside-3_4063_9669)"/>
<mask id="path-9-inside-4_4063_9669" fill="white">
<path d="M16.5946 6.22656H19.1394C19.6042 6.32252 19.5984 7.00021 19.1452 7.11416H16.5481C16.1182 6.94624 16.1705 6.34651 16.5946 6.22656Z"/>
</mask>
<path d="M16.5946 6.22656H19.1394C19.6042 6.32252 19.5984 7.00021 19.1452 7.11416H16.5481C16.1182 6.94624 16.1705 6.34651 16.5946 6.22656Z" fill="currentColor"/>
<path d="M16.5946 6.22656V5.22656H16.4559L16.3225 5.2643L16.5946 6.22656ZM19.1394 6.22656L19.3416 5.24721L19.2415 5.22656H19.1394V6.22656ZM19.1452 7.11416V8.11416H19.269L19.3891 8.08397L19.1452 7.11416ZM16.5481 7.11416L16.1843 8.04563L16.3598 8.11416H16.5481V7.11416ZM16.5946 7.22656H19.1394V5.22656H16.5946V7.22656ZM18.9372 7.20591C18.8101 7.17967 18.6817 7.10121 18.5935 6.98071C18.5131 6.87102 18.4866 6.75617 18.4866 6.66361C18.4866 6.4868 18.6052 6.2188 18.9014 6.14435L19.3891 8.08397C20.1384 7.89557 20.4866 7.23175 20.4866 6.66361C20.4866 6.08458 20.1222 5.40837 19.3416 5.24721L18.9372 7.20591ZM19.1452 6.11416H16.5481V8.11416H19.1452V6.11416ZM16.9119 6.18268C17.1433 6.27307 17.2625 6.5138 17.2489 6.71863C17.2363 6.90747 17.1056 7.12128 16.8667 7.18882L16.3225 5.2643C15.0483 5.62465 14.7915 7.50166 16.1843 8.04563L16.9119 6.18268Z" fill="currentColor" mask="url(#path-9-inside-4_4063_9669)"/>
<mask id="path-11-inside-5_4063_9669" fill="white">
<path d="M16.3567 5.08148C16.1475 4.84159 16.2579 4.3858 16.5833 4.33182C17.3328 4.21188 18.367 4.41579 19.1455 4.33182C19.6161 4.45777 19.5987 5.14745 19.099 5.22542C18.5994 5.30338 17.1062 5.28539 16.6646 5.22542C16.223 5.16545 16.409 5.14146 16.3509 5.07549L16.3567 5.08148Z"/>
</mask>
<path d="M16.3567 5.08148C16.1475 4.84159 16.2579 4.3858 16.5833 4.33182C17.3328 4.21188 18.367 4.41579 19.1455 4.33182C19.6161 4.45777 19.5987 5.14745 19.099 5.22542C18.5994 5.30338 17.1062 5.28539 16.6646 5.22542C16.223 5.16545 16.409 5.14146 16.3509 5.07549L16.3567 5.08148Z" fill="currentColor"/>
<path d="M16.3567 5.08148L15.6384 5.77729L17.1104 4.4243L16.3567 5.08148ZM16.5833 4.33182L16.4252 3.34437L16.4196 3.34531L16.5833 4.33182ZM19.1455 4.33182L19.404 3.36582L19.2238 3.31758L19.0383 3.33759L19.1455 4.33182ZM16.3509 5.07549L17.0691 4.37968L15.6004 5.73642L16.3509 5.07549ZM17.1104 4.4243C17.2686 4.60569 17.2628 4.79824 17.2326 4.90616C17.1995 5.02454 17.0644 5.26567 16.7469 5.31834L16.4196 3.34531C15.7768 3.45195 15.4238 3.94797 15.3064 4.36771C15.192 4.77699 15.2356 5.31739 15.6029 5.73867L17.1104 4.4243ZM16.7413 5.31926C16.9906 5.27937 17.3259 5.29003 17.7969 5.31673C18.2134 5.34034 18.7626 5.37891 19.2527 5.32606L19.0383 3.33759C18.7498 3.3687 18.3927 3.3473 17.9101 3.31993C17.482 3.29566 16.9255 3.26434 16.4252 3.34439L16.7413 5.31926ZM18.887 5.29783C18.6091 5.22345 18.4788 4.95918 18.4869 4.75628C18.491 4.65478 18.5267 4.53666 18.6145 4.43108C18.7099 4.31636 18.8361 4.25434 18.9449 4.23737L19.2532 6.21346C20.0321 6.09193 20.4605 5.45165 20.4853 4.83695C20.5095 4.23823 20.1526 3.56614 19.404 3.36582L18.887 5.29783ZM18.9449 4.23737C18.7849 4.26233 18.3628 4.27944 17.8646 4.27716C17.3729 4.2749 16.9482 4.25476 16.7992 4.23452L16.53 6.21632C16.8226 6.25605 17.3653 6.27489 17.8555 6.27713C18.3392 6.27935 18.9135 6.26647 19.2532 6.21346L18.9449 4.23737ZM16.7992 4.23452C16.6962 4.22053 16.6728 4.21396 16.6864 4.21745C16.6925 4.21901 16.7435 4.2318 16.812 4.264C16.8731 4.29271 17.0341 4.37594 17.1697 4.56049C17.2423 4.65924 17.2967 4.77248 17.3283 4.89466C17.3588 5.01308 17.3616 5.11575 17.3579 5.18795C17.3544 5.25572 17.3442 5.30716 17.3417 5.32025C17.3403 5.32713 17.3389 5.33383 17.3399 5.32909C17.3403 5.32734 17.3425 5.31696 17.3448 5.30438C17.3543 5.25418 17.3814 5.10245 17.3455 4.91274C17.3274 4.81672 17.2957 4.72303 17.2507 4.63446C17.2063 4.54718 17.1539 4.47425 17.1013 4.41456L15.6004 5.73642C15.5037 5.62663 15.4162 5.47401 15.3803 5.28408C15.3471 5.10855 15.3726 4.96997 15.3798 4.93224C15.3816 4.92278 15.3831 4.91547 15.3829 4.91675C15.3828 4.91681 15.3828 4.91687 15.3828 4.9171C15.3827 4.91729 15.3827 4.91762 15.3826 4.91798C15.3824 4.9187 15.3822 4.9199 15.3819 4.92133C15.3813 4.92412 15.3803 4.92883 15.3792 4.93458C15.3755 4.95359 15.3644 5.0108 15.3606 5.08425C15.3513 5.26316 15.387 5.51199 15.5582 5.74492C15.7018 5.94033 15.8768 6.03433 15.9612 6.07404C16.0531 6.11722 16.1369 6.14121 16.1885 6.15449C16.2933 6.1814 16.4122 6.20032 16.53 6.21632L16.7992 4.23452ZM15.6326 5.77129L15.6384 5.77729L17.0749 4.38568L17.0691 4.37968L15.6326 5.77129Z" fill="currentColor" mask="url(#path-11-inside-5_4063_9669)"/>
<path d="M19.7406 12.0623C19.7359 12.0606 19.7368 12.0606 19.7419 12.0627C19.7414 12.0625 19.741 12.0624 19.7406 12.0623Z" fill="currentColor" stroke="currentColor"/>
<mask id="path-14-inside-6_4063_9669" fill="white">
<path d="M19.6798 13.993C19.8367 13.963 20.6385 13.957 20.7837 14.005C21.173 14.1249 21.1265 14.8086 20.6675 14.8806C20.47 14.9106 19.7554 14.9046 19.5927 14.8266C19.2324 14.6527 19.2789 14.077 19.6798 13.993Z"/>
</mask>
<path d="M19.6798 13.993C19.8367 13.963 20.6385 13.957 20.7837 14.005C21.173 14.1249 21.1265 14.8086 20.6675 14.8806C20.47 14.9106 19.7554 14.9046 19.5927 14.8266C19.2324 14.6527 19.2789 14.077 19.6798 13.993Z" fill="currentColor"/>
<path d="M19.6798 13.993L19.4921 13.0108L19.4834 13.0124L19.4748 13.0142L19.6798 13.993ZM20.7837 14.005L20.4701 14.9545L20.4797 14.9577L20.4893 14.9607L20.7837 14.005ZM20.6675 14.8806L20.8176 15.8693L20.8224 15.8685L20.6675 14.8806ZM19.5927 14.8266L19.1579 15.7272L19.1605 15.7284L19.5927 14.8266ZM19.8676 14.9752C19.8307 14.9823 19.8153 14.9822 19.8451 14.9798C19.8656 14.9782 19.8969 14.9764 19.9385 14.9747C20.0214 14.9713 20.1261 14.9694 20.233 14.9698C20.3409 14.9701 20.4401 14.9727 20.5138 14.977C20.5513 14.9792 20.5728 14.9813 20.581 14.9823C20.5849 14.9827 20.579 14.9821 20.5662 14.9798C20.5573 14.9781 20.5205 14.9712 20.4701 14.9545L21.0974 13.0555C20.914 12.9949 20.6997 12.9844 20.6302 12.9804C20.5079 12.9732 20.3696 12.9702 20.2393 12.9698C20.1079 12.9694 19.9738 12.9716 19.8576 12.9763C19.7681 12.9799 19.6156 12.9872 19.4921 13.0108L19.8676 14.9752ZM20.4893 14.9607C20.3056 14.9041 20.1764 14.7752 20.1095 14.6481C20.0494 14.5339 20.0415 14.4306 20.0491 14.357C20.0632 14.2223 20.184 13.9442 20.5126 13.8927L20.8224 15.8685C21.61 15.745 21.9836 15.0892 22.0383 14.5646C22.0894 14.0753 21.8831 13.2973 21.0782 13.0493L20.4893 14.9607ZM20.5175 13.8919C20.5335 13.8895 20.5042 13.8938 20.4141 13.8961C20.337 13.898 20.2435 13.8978 20.1505 13.8947C20.0554 13.8915 19.9749 13.8858 19.9196 13.8792C19.8916 13.8758 19.8818 13.8737 19.886 13.8745C19.8885 13.8751 19.9008 13.8777 19.92 13.8836C19.9372 13.8888 19.9756 13.9012 20.0248 13.9248L19.1605 15.7284C19.3692 15.8284 19.6001 15.8553 19.6834 15.8652C19.8139 15.8807 19.9549 15.8892 20.0835 15.8935C20.3156 15.9013 20.6218 15.899 20.8176 15.8693L20.5175 13.8919ZM20.0275 13.9261C20.2916 14.0536 20.3615 14.3106 20.3464 14.4705C20.3301 14.6417 20.1944 14.9069 19.8848 14.9718L19.4748 13.0142C18.7643 13.163 18.4049 13.7581 18.3553 14.2817C18.3067 14.7939 18.5335 15.4257 19.1579 15.7272L20.0275 13.9261Z" fill="currentColor" mask="url(#path-14-inside-6_4063_9669)"/>
<path d="M19.836 9.91551C19.836 9.91549 19.8363 9.91527 19.8369 9.91491L19.836 9.91551Z" fill="currentColor" stroke="currentColor"/>
</g>
<defs>
<clipPath id="clip0_4063_9669">
<rect width="24" height="24" fill="white" transform="translate(0 0.25)"/>
</clipPath>
</defs>
</svg>

<svg width="24" height="25" fill="none" xmlns="http://www.w3.org/2000/svg"><g clip-path="url(#a)"><path d="m23.138 1.417-.006 13.781c-.07 1.068-1.313 2.513-2.37 2.513h-6.804v2.897c0 1.433-1.534 2.507-2.8 2.585-3.185.191-6.543-.15-9.744 0-.407.012-.732-.408-.436-.768.145-.18.64-.168.895-.246.709-.222 1.29-.983 1.353-1.745.093-1.134-.08-6.261 0-7.407.122-.486.808-.39.86.12-.058 1.152.093 6.19.012 7.335-.052.707-.354 1.283-.784 1.817h7.936c.814 0 1.848-.912 1.848-1.775v-2.807H10.29c-.952 0-2.37-1.415-2.37-2.399v-1.325H5.986c-.29 0-.494-.378-.377-.66.023-.066.197-.234.25-.234h1.998l.064-.066v-1.26l-.064-.065H5.858c-.052 0-.226-.174-.25-.234-.11-.288.094-.66.378-.66h1.935V8.727c0-.54-.465-1.253-.9-1.541-1.232-.804-2.749 0-2.929 1.451l-.011 4.522c-.186.492-.831.396-.86-.126.087-1.445-.11-3.016 0-4.45.093-1.193 1.243-2.627 2.457-2.627h6.891V1.482c0-.221.232-.467.46-.467.33 0 1.23.69 1.608.797.436-.102 1.226-.785 1.616-.791.308 0 1.255.671 1.603.791.424-.096 1.244-.785 1.615-.791.314 0 1.244.677 1.61.785l1.545-.767c.262-.042.372.096.512.288v.09Zm-.878.81c-.32.107-.842.533-1.15.539-.308.006-1.214-.624-1.615-.768-.28-.018-1.203.756-1.604.768-.4.012-1.22-.654-1.656-.762-.22 0-1.075.63-1.383.726-.528.162-.93-.384-1.423-.504V12.8c0 .966.157 2.297-.21 3.19-.365.894-.313.54-.487.822h7.936c.645 0 1.587-1.025 1.587-1.685v-12.9h.005ZM12.563 6.85h-4.52c.4.528.686 1.091.738 1.775.157 2.075-.174 4.402 0 6.465.174 2.063 1.964 2.267 3.114 1.278.238-.204.674-.834.674-1.146V6.85h-.006Z" fill="currentColor" stroke="currentColor" stroke-width=".5"/><mask id="b" fill="#fff"><path d="m5.893 19.38 5.385-.013c.547.066.558.834 0 .9h-5.31a.451.451 0 0 1-.075-.888Z"/></mask><path d="m5.893 19.38 5.385-.013c.547.066.558.834 0 .9h-5.31a.451.451 0 0 1-.075-.888Z" fill="currentColor"/><path d="m5.893 19.38-.003-1H5.75l-.136.04.28.96Zm5.385-.013.12-.993-.06-.007h-.062l.002 1Zm0 .9v1h.06l.058-.007-.118-.993Zm-5.31 0-.128.992.064.008h.064v-1Zm-.073.112 5.386-.012-.005-2-5.386.012.005 2Zm5.264-.019a.537.537 0 0 1-.337-.19.543.543 0 0 1 .002-.704.537.537 0 0 1 .337-.192l.235 1.986a1.442 1.442 0 0 0 1.296-1.45 1.449 1.449 0 0 0-1.294-1.436l-.24 1.986Zm.12-1.093h-5.31v2h5.31v-2Zm-5.183.008a.55.55 0 0 1 .076 1.064l-.56-1.92c-1.58.461-1.31 2.641.228 2.84l.256-1.984Z" fill="currentColor" mask="url(#b)"/><mask id="c" fill="#fff"><path d="M15.2 9.417c.419-.072 2.162-.066 2.586 0 .424.066.604.72.098.882h-2.777c-.441-.198-.4-.798.099-.882H15.2Z"/></mask><path d="M15.2 9.417c.419-.072 2.162-.066 2.586 0 .424.066.604.72.098.882h-2.777c-.441-.198-.4-.798.099-.882H15.2Z" fill="currentColor"/><path d="m15.2 9.417-.17-.986.17 1.986v-1Zm2.684.882v1h.157l.149-.048-.306-.952Zm-2.777 0-.409.912.195.088h.214v-1Zm.099-.882.166.986-.166-1.986v1Zm.164.986.032-.004.086-.008c.073-.005.164-.01.27-.014.213-.008.47-.012.731-.012.558.001 1.02.021 1.143.04l.307-1.976c-.301-.047-.922-.063-1.447-.064-.518 0-1.15.013-1.461.066l.339 1.972Zm2.262.002a.505.505 0 0 1-.432-.404.583.583 0 0 1 .07-.387c.088-.16.222-.24.31-.268l.61 1.905c.34-.11.64-.331.825-.661.177-.318.205-.659.153-.947-.098-.538-.526-1.105-1.229-1.214l-.307 1.976Zm.252-1.106h-2.777v2h2.777v-2Zm-2.368.087a.52.52 0 0 1 .283.523.576.576 0 0 1-.154.34.503.503 0 0 1-.273.154l-.332-1.972c-.683.115-1.17.641-1.232 1.29-.058.622.288 1.22.89 1.49l.818-1.825Zm-.31-.969H15.2v2h.006v-2Z" fill="currentColor" mask="url(#c)"/><path d="M17.844 12.596c-.422.067-.927.038-1.43.01-.44-.025-.878-.05-1.26-.01h2.69Z" fill="currentColor" stroke="currentColor"/><mask id="d" fill="#fff"><path d="M15.113 13.993h2.772c.488.138.418.81-.088.882-.435.066-2.173.072-2.603 0-.47-.078-.528-.726-.08-.888v.006Z"/></mask><path d="M15.113 13.993h2.772c.488.138.418.81-.088.882-.435.066-2.173.072-2.603 0-.47-.078-.528-.726-.08-.888v.006Z" fill="currentColor"/><path d="M15.113 13.993h-1v1h1v-1Zm2.772 0 .272-.962-.134-.038h-.138v1Zm-.088.882-.14-.99-.01.001.15.989Zm-2.603 0 .166-.986h-.002l-.164.986Zm-.08-.888h1v-1.425l-1.341.485.34.94Zm0 1.006h2.77v-2h-2.77v2Zm2.499-.037a.551.551 0 0 1-.304-.232.567.567 0 0 1-.09-.366.534.534 0 0 1 .438-.473l.281 1.98a1.467 1.467 0 0 0 1.27-1.306 1.429 1.429 0 0 0-1.051-1.528l-.544 1.925Zm.035-1.07c-.132.02-.599.04-1.156.04-.262.001-.52-.003-.734-.01a7.616 7.616 0 0 1-.389-.026.354.354 0 0 1-.01-.001l-.33 1.972c.314.053.945.066 1.466.066.528-.001 1.148-.017 1.452-.063l-.3-1.978Zm-2.29.002c.55.091.611.853.095 1.04l-.68-1.881c-1.41.51-1.233 2.567.258 2.814l.327-1.973Zm-1.245.1v.005h2v-.006h-2Z" fill="currentColor" mask="url(#d)"/><mask id="e" fill="#fff"><path d="M16.595 6.227h2.544c.465.096.46.773.006.887h-2.597c-.43-.168-.377-.767.047-.887Z"/></mask><path d="M16.595 6.227h2.544c.465.096.46.773.006.887h-2.597c-.43-.168-.377-.767.047-.887Z" fill="currentColor"/><path d="M16.595 6.227v-1h-.14l-.132.037.272.963Zm2.544 0 .203-.98-.1-.02h-.103v1Zm.006.887v1h.124l.12-.03-.244-.97Zm-2.597 0-.364.932.176.068h.188v-1Zm.047.113h2.544v-2h-2.544v2Zm2.342-.021a.58.58 0 0 1-.344-.225.537.537 0 0 1-.106-.317c0-.177.118-.445.414-.52l.488 1.94c.75-.188 1.098-.852 1.098-1.42 0-.58-.365-1.256-1.145-1.417l-.405 1.959Zm.208-1.092h-2.597v2h2.597v-2Zm-2.233.069c.231.09.35.33.337.536a.531.531 0 0 1-.382.47l-.544-1.925c-1.275.36-1.532 2.238-.139 2.782l.728-1.863Z" fill="currentColor" mask="url(#e)"/><mask id="f" fill="#fff"><path d="M16.357 5.081c-.21-.24-.1-.695.226-.75.75-.12 1.784.085 2.563 0 .47.127.453.816-.047.894-.5.078-1.993.06-2.434 0-.442-.06-.256-.084-.314-.15l.006.006Z"/></mask><path d="M16.357 5.081c-.21-.24-.1-.695.226-.75.75-.12 1.784.085 2.563 0 .47.127.453.816-.047.894-.5.078-1.993.06-2.434 0-.442-.06-.256-.084-.314-.15l.006.006Z" fill="currentColor"/><path d="m16.357 5.081-.719.696 1.472-1.353-.753.657Zm.226-.75-.158-.987-.005.001.163.987Zm2.563 0 .258-.965-.18-.048-.186.02.107.994Zm-2.795.744.718-.695L15.6 5.736l.75-.66Zm.76-.65a.518.518 0 0 1 .122.481.6.6 0 0 1-.486.412l-.327-1.973c-.643.107-.996.603-1.114 1.023-.114.409-.07.95.297 1.37l1.507-1.314Zm-.37.894c.25-.04.585-.029 1.056-.002.416.023.966.062 1.456.01l-.215-1.99c-.288.032-.645.01-1.128-.017-.428-.024-.985-.056-1.485.024l.316 1.975Zm2.146-.021a.549.549 0 0 1-.4-.542.544.544 0 0 1 .128-.325.551.551 0 0 1 .33-.194l.308 1.976a1.441 1.441 0 0 0 1.232-1.376 1.452 1.452 0 0 0-1.081-1.471l-.517 1.932Zm.058-1.06c-.16.024-.582.041-1.08.04a11.281 11.281 0 0 1-1.066-.043l-.269 1.981c.293.04.835.059 1.325.061.484.002 1.058-.01 1.398-.064l-.308-1.976Zm-2.146-.003c-.103-.014-.126-.021-.113-.018.006.002.058.015.126.047a.977.977 0 0 1 .546.924c-.004.068-.014.12-.016.132l-.002.01.005-.026a1.05 1.05 0 0 0-.244-.89l-1.5 1.322a.953.953 0 0 1-.218-.82v.002l-.001.003a1.024 1.024 0 0 0 .58 1.153c.091.043.175.067.227.08.104.027.223.046.341.062l.27-1.981ZM15.633 5.77l.005.006 1.437-1.391-.006-.006-1.436 1.391Z" fill="currentColor" mask="url(#f)"/><path d="M19.74 12.062h.002-.001Z" fill="currentColor" stroke="currentColor"/><mask id="g" fill="#fff"><path d="M19.68 13.993c.157-.03.959-.036 1.104.012.389.12.343.804-.116.876-.198.03-.913.024-1.075-.054-.36-.174-.314-.75.087-.834Z"/></mask><path d="M19.68 13.993c.157-.03.959-.036 1.104.012.389.12.343.804-.116.876-.198.03-.913.024-1.075-.054-.36-.174-.314-.75.087-.834Z" fill="currentColor"/><path d="m19.68 13.993-.188-.982-.009.001-.008.002.205.979Zm1.104.012-.314.95.01.003.01.003.294-.956Zm-.116.876.15.988h.004l-.154-.988Zm-1.075-.054-.435.9.002.001.433-.901Zm.275.148c-.037.007-.053.007-.023.005a6.863 6.863 0 0 1 .736.003l-.015-.003c-.009-.002-.046-.009-.096-.026l.627-1.899c-.183-.06-.397-.07-.467-.075a9.06 9.06 0 0 0-.773-.004c-.089.004-.241.011-.365.035l.376 1.964Zm.621-.014a.648.648 0 0 1-.38-.313.51.51 0 0 1-.06-.291.548.548 0 0 1 .464-.464l.31 1.975c.787-.123 1.16-.779 1.215-1.303.051-.49-.155-1.268-.96-1.516l-.589 1.912Zm.028-1.07c.017-.002-.013.003-.103.005a4.703 4.703 0 0 1-.494-.017c-.028-.003-.038-.005-.034-.005l.034.01a.735.735 0 0 1 .105.04l-.864 1.804c.208.1.44.127.522.137.13.016.272.024.4.028.233.008.539.006.735-.024l-.3-1.977Zm-.49.035a.556.556 0 0 1 .32.544.584.584 0 0 1-.462.502l-.41-1.958c-.71.149-1.07.744-1.12 1.268-.048.512.178 1.144.803 1.445l.87-1.8Z" fill="currentColor" mask="url(#g)"/><path d="M19.836 9.916v-.001Z" fill="currentColor" stroke="currentColor"/></g><defs><clipPath id="a"><path fill="#fff" transform="translate(0 .25)" d="M0 0h24v24H0z"/></clipPath></defs></svg>
